Catalina-dark/actions/22/labplot-TeX-logo.svg

<svg xmlns="http://www.w3.org/2000/svg" viewBox="0 0 22 22">
  <defs id="defs3051">
    <style type="text/css" id="current-color-scheme">
      .ColorScheme-Text {
        color:#f2f2f2;
      }
      </style>
  </defs>
 <path 
     style="fill:currentColor;fill-opacity:1;stroke:none" 
     d="M 3 6.5 L 3 7.5 L 5.5 7.5 L 5.5 13.5 L 6.5 13.5 L 6.5 7.5 L 9 7.5 L 9 6.5 L 3 6.5 z M 14.394531 6.6953125 L 13.603516 7.3046875 L 15.869141 10.25 L 13.603516 13.195312 L 14.394531 13.804688 L 16.5 11.068359 L 18.603516 13.804688 L 19.394531 13.195312 L 17.128906 10.25 L 19.394531 7.3046875 L 18.603516 6.6953125 L 16.5 9.4316406 L 14.394531 6.6953125 z M 8 8.5 L 8 9.5 L 8 11 L 8 12 L 8 14.5 L 8 15.5 L 13 15.5 L 13 14.5 L 9 14.5 L 9 12.5 L 13 12.5 L 13 11.5 L 9 11.5 L 9 9.5 L 13 9.5 L 13 8.5 L 8 8.5 z "
     class="ColorScheme-Text"
     />
</svg>

<svg viewBox="0 0 22 22" xmlns="http://www.w3.org/2000/svg">
<defs>
<style id="current-color-scheme" type="text/css">.ColorScheme-Text {
        color:#dedede;
      }</style>
</defs>
<path class="ColorScheme-Text" d="m3 6.5v1h2.5v6h1v-6h2.5v-1h-6zm11.395 0.19531-0.79102 0.60938 2.2656 2.9453-2.2656 2.9453 0.79102 0.60938 2.1055-2.7363 2.1035 2.7363 0.79102-0.60938-2.2656-2.9453 2.2656-2.9453-0.79102-0.60938-2.1035 2.7363-2.1055-2.7363zm-6.3945 1.8047v1 1.5 1 2.5 1h5v-1h-4v-2h4v-1h-4v-2h4v-1h-5z" fill="currentColor"/>
</svg>
